X: 9030
T: Da Burn O' Weindalittle
R: reel
M: 4/4
K: Dmajor
|:A2 AG FGAF|EDCD EFGE|D2 DE FGAF|1 ABde fddB:|2 ABde fd d2||
|:f2 fe fg a2|ecAc ef g2|faef dBAF|ABde fd d2:|

